(PLATE_SPOT)
(T1  D=6.35 CR=0 TAPER=90deg - ZMIN=-1 - spot drill)
G90 G94
G17
G21
G28 G91 Z0
G90

(Drill1)
T1 M6
S10000 M3
G54
M8
G0 X24.63 Y51.57
Z25
Z15
Z5
G1 Z-1 F762
G0 Z15
X4 Y49.1
Z5
G1 Z-1 F762
G0 Z15
Y27.1
Z5
G1 Z-1 F762
G0 Z15
X24.63 Y24.63
Z5
G1 Z-1 F762
G0 Z15
X51.57
Z5
G1 Z-1 F762
G0 Z15
X72.2 Y27.1
Z5
G1 Z-1 F762
G0 Z15
Y49.1
Z5
G1 Z-1 F762
G0 Z15
X51.57 Y51.57
Z5
G1 Z-1 F762
G0 Z15
X100.8 Y5
Z5
G1 Z-1 F762
G0 Z15
Z25
M9
G28 G91 Z0
G90
G28 G91 X0 Y0
G90
M5
M30
