(PLATE_3_16)
(T3  D=4.762 CR=0 - ZMIN=-6.35 - flat end mill)
G90 G94
G17
G21
G28 G91 Z0
G90

(2D Contour1)
T3 M6
S5000 M3
G54
M8
G0 X32.124 Y80.01
Z25
Z5
G1 Z-0.524 F250
G19 G2 Y79.534 Z-1 J-0.476 K0 F586
G1 Y79.058
G17 G3 X32.6 Y78.581 I0.476 J0
G2 X37.981 Y73.2 I0 J-5.381
G1 Y55.239
G2 X34.244 Y50.115 I-5.381 J0
G3 X41.956 Y26.085 I3.856 J-12.015
X41.956 Y50.115 I-3.856 J12.015
G2 X38.219 Y55.239 I1.644 J5.124
G1 Y73.2
G2 X43.6 Y78.581 I5.381 J0
G3 X44.076 Y79.058 I0 J0.476
G1 Y79.534
G19 G3 Y80.01 Z-0.524 J0 K0.476
G1 X32.124
Z-1.524 F250
G2 Y79.534 Z-2 J-0.476 K0 F586
G1 Y79.058
G17 G3 X32.6 Y78.581 I0.476 J0
G2 X37.981 Y73.2 I0 J-5.381
G1 Y55.239
G2 X34.244 Y50.115 I-5.381 J0
G3 X41.956 Y26.085 I3.856 J-12.015
X41.956 Y50.115 I-3.856 J12.015
G2 X38.219 Y55.239 I1.644 J5.124
G1 Y73.2
G2 X43.6 Y78.581 I5.381 J0
G3 X44.076 Y79.058 I0 J0.476
G1 Y79.534
G19 G3 Y80.01 Z-1.524 J0 K0.476
G1 X32.124
Z-2.524 F250
G2 Y79.534 Z-3 J-0.476 K0 F586
G1 Y79.058
G17 G3 X32.6 Y78.581 I0.476 J0
G2 X37.981 Y73.2 I0 J-5.381
G1 Y55.239
G2 X34.244 Y50.115 I-5.381 J0
G3 X41.956 Y26.085 I3.856 J-12.015
X41.956 Y50.115 I-3.856 J12.015
G2 X38.219 Y55.239 I1.644 J5.124
G1 Y73.2
G2 X43.6 Y78.581 I5.381 J0
G3 X44.076 Y79.058 I0 J0.476
G1 Y79.534
G19 G3 Y80.01 Z-2.524 J0 K0.476
G1 X32.124
Z-3.524 F250
G2 Y79.534 Z-4 J-0.476 K0 F586
G1 Y79.058
G17 G3 X32.6 Y78.581 I0.476 J0
G2 X37.981 Y73.2 I0 J-5.381
G1 Y55.239
G2 X34.244 Y50.115 I-5.381 J0
G3 X41.956 Y26.085 I3.856 J-12.015
X41.956 Y50.115 I-3.856 J12.015
G2 X38.219 Y55.239 I1.644 J5.124
G1 Y73.2
G2 X43.6 Y78.581 I5.381 J0
G3 X44.076 Y79.058 I0 J0.476
G1 Y79.534
G19 G3 Y80.01 Z-3.524 J0 K0.476
G1 X32.124
Z-4.524 F250
G2 Y79.534 Z-5 J-0.476 K0 F586
G1 Y79.058
G17 G3 X32.6 Y78.581 I0.476 J0
G2 X37.981 Y73.2 I0 J-5.381
G1 Y55.239
G2 X34.244 Y50.115 I-5.381 J0
G3 X41.956 Y26.085 I3.856 J-12.015
X41.956 Y50.115 I-3.856 J12.015
G2 X38.219 Y55.239 I1.644 J5.124
G1 Y73.2
G2 X43.6 Y78.581 I5.381 J0
G3 X44.076 Y79.058 I0 J0.476
G1 Y79.534
G19 G3 Y80.01 Z-4.524 J0 K0.476
G1 X32.124
Z-5.524 F250
G2 Y79.534 Z-6 J-0.476 K0 F586
G1 Y79.058
G17 G3 X32.6 Y78.581 I0.476 J0
G2 X37.981 Y73.2 I0 J-5.381
G1 Y55.239
G2 X34.244 Y50.115 I-5.381 J0
G3 X41.956 Y26.085 I3.856 J-12.015
X41.956 Y50.115 I-3.856 J12.015
G2 X38.219 Y55.239 I1.644 J5.124
G1 Y73.2
G2 X43.6 Y78.581 I5.381 J0
G3 X44.076 Y79.058 I0 J0.476
G1 Y79.534
G19 G3 Y80.01 Z-5.524 J0 K0.476
G1 X32.124
Z-5.874 F250
G2 Y79.534 Z-6.35 J-0.476 K0 F586
G1 Y79.058
G17 G3 X32.6 Y78.581 I0.476 J0
G2 X37.981 Y73.2 I0 J-5.381
G1 Y55.239
G2 X34.244 Y50.115 I-5.381 J0
G3 X41.956 Y26.085 I3.856 J-12.015
X41.956 Y50.115 I-3.856 J12.015
G2 X38.219 Y55.239 I1.644 J5.124
G1 Y73.2
G2 X43.6 Y78.581 I5.381 J0
G3 X44.076 Y79.058 I0 J0.476
G1 Y79.534
G19 G3 Y80.01 Z-5.874 J0 K0.476
G0 Z25
G17

(Slot1)
G0 X92.749 Y22.265
Z25
Z5
G1 Z0.5 F586
G3 X83.535 Y13.051 Z0.075 I8.051 J-17.265
G2 X92.749 Y22.265 Z-0.35 I17.265 J-8.051
G3 X83.535 Y13.051 I8.051 J-17.265
G2 X92.749 Y22.265 Z-0.683 I17.265 J-8.051
G3 X83.535 Y13.051 Z-1.017 I8.051 J-17.265
G2 X92.749 Y22.265 Z-1.35 I17.265 J-8.051
G3 X83.535 Y13.051 I8.051 J-17.265
G2 X92.749 Y22.265 Z-1.683 I17.265 J-8.051
G3 X83.535 Y13.051 Z-2.017 I8.051 J-17.265
G2 X92.749 Y22.265 Z-2.35 I17.265 J-8.051
G3 X83.535 Y13.051 I8.051 J-17.265
G2 X92.749 Y22.265 Z-2.683 I17.265 J-8.051
G3 X83.535 Y13.051 Z-3.017 I8.051 J-17.265
G2 X92.749 Y22.265 Z-3.35 I17.265 J-8.051
G3 X83.535 Y13.051 I8.051 J-17.265
G2 X92.749 Y22.265 Z-3.683 I17.265 J-8.051
G3 X83.535 Y13.051 Z-4.017 I8.051 J-17.265
G2 X92.749 Y22.265 Z-4.35 I17.265 J-8.051
G3 X83.535 Y13.051 I8.051 J-17.265
G2 X92.749 Y22.265 Z-4.683 I17.265 J-8.051
G3 X83.535 Y13.051 Z-5.017 I8.051 J-17.265
G2 X92.749 Y22.265 Z-5.35 I17.265 J-8.051
G3 X83.535 Y13.051 I8.051 J-17.265
G2 X92.749 Y22.265 Z-5.683 I17.265 J-8.051
G3 X83.535 Y13.051 Z-6.017 I8.051 J-17.265
G2 X92.749 Y22.265 Z-6.35 I17.265 J-8.051
G3 X83.535 Y13.051 I8.051 J-17.265
G0 Z25

(2D Pocket1)
X100.919 Y5
Z25
Z5
G1 Z-1 F250
G3 X100.681 Y5 I-0.119 J0 F586
X100.919 Y5 I0.119 J0
G1 Z-2 F250
G3 X100.681 Y5 I-0.119 J0 F586
X100.919 Y5 I0.119 J0
G1 Z-3 F250
G3 X100.681 Y5 I-0.119 J0 F586
X100.919 Y5 I0.119 J0
G1 Z-4 F250
G3 X100.681 Y5 I-0.119 J0 F586
X100.919 Y5 I0.119 J0
G1 Z-5 F250
G3 X100.681 Y5 I-0.119 J0 F586
X100.919 Y5 I0.119 J0
G1 Z-6 F250
G3 X100.681 Y5 I-0.119 J0 F586
X100.919 Y5 I0.119 J0
G1 Z-6.35 F250
G3 X100.681 Y5 I-0.119 J0 F586
X100.919 Y5 I0.119 J0
G1 X100.913 Y5.035 Z-6.343
X100.898 Y5.067 Z-6.336
X100.874 Y5.093 Z-6.329
X100.843 Y5.111 Z-6.322
X100.804 Y5.119 Z-6.295
X100.764 Y5.113 Z-6.268
X100.729 Y5.095 Z-6.242
X100.701 Y5.065 Z-6.181
X100.685 Y5.028 Z-6.12
X100.681 Y5 Z-5.977
G0 Z25
M9
G28 G91 Z0
G90
G28 G91 X0 Y0
G90
M5
M30
