(PLATE_DRILL_1_8)
(T2  D=3.175 CR=0 TAPER=118deg - ZMIN=-5.85 - drill)
G90 G94
G17
G21
G28 G91 Z0
G90

(Drill2)
T2 M6
S9170 M3
G54
M8
G0 X24.63 Y51.57
Z25
Z15
Z5
Z2
G1 Z-0.794 F229.3
G0 Z-0.694
G1 Z-1.587 F229.3
G0 Z-1.487
G1 Z-2.381 F229.3
G0 Z-2.281
G1 Z-3.175 F229.3
G0 Z-3.075
G1 Z-3.969 F229.3
G0 Z-3.869
G1 Z-4.762 F229.3
G0 Z-4.662
G1 Z-5.556 F229.3
G0 Z-5.456
G1 Z-5.85 F229.3
G0 Z15
X4 Y49.1
Z5
Z2
G1 Z-0.794 F229.3
G0 Z-0.694
G1 Z-1.587 F229.3
G0 Z-1.487
G1 Z-2.381 F229.3
G0 Z-2.281
G1 Z-3.175 F229.3
G0 Z-3.075
G1 Z-3.969 F229.3
G0 Z-3.869
G1 Z-4.762 F229.3
G0 Z-4.662
G1 Z-5.556 F229.3
G0 Z-5.456
G1 Z-5.85 F229.3
G0 Z15
Y27.1
Z5
Z2
G1 Z-0.794 F229.3
G0 Z-0.694
G1 Z-1.587 F229.3
G0 Z-1.487
G1 Z-2.381 F229.3
G0 Z-2.281
G1 Z-3.175 F229.3
G0 Z-3.075
G1 Z-3.969 F229.3
G0 Z-3.869
G1 Z-4.762 F229.3
G0 Z-4.662
G1 Z-5.556 F229.3
G0 Z-5.456
G1 Z-5.85 F229.3
G0 Z15
X24.63 Y24.63
Z5
Z2
G1 Z-0.794 F229.3
G0 Z-0.694
G1 Z-1.587 F229.3
G0 Z-1.487
G1 Z-2.381 F229.3
G0 Z-2.281
G1 Z-3.175 F229.3
G0 Z-3.075
G1 Z-3.969 F229.3
G0 Z-3.869
G1 Z-4.762 F229.3
G0 Z-4.662
G1 Z-5.556 F229.3
G0 Z-5.456
G1 Z-5.85 F229.3
G0 Z15
X51.57
Z5
Z2
G1 Z-0.794 F229.3
G0 Z-0.694
G1 Z-1.587 F229.3
G0 Z-1.487
G1 Z-2.381 F229.3
G0 Z-2.281
G1 Z-3.175 F229.3
G0 Z-3.075
G1 Z-3.969 F229.3
G0 Z-3.869
G1 Z-4.762 F229.3
G0 Z-4.662
G1 Z-5.556 F229.3
G0 Z-5.456
G1 Z-5.85 F229.3
G0 Z15
X72.2 Y27.1
Z5
Z2
G1 Z-0.794 F229.3
G0 Z-0.694
G1 Z-1.587 F229.3
G0 Z-1.487
G1 Z-2.381 F229.3
G0 Z-2.281
G1 Z-3.175 F229.3
G0 Z-3.075
G1 Z-3.969 F229.3
G0 Z-3.869
G1 Z-4.762 F229.3
G0 Z-4.662
G1 Z-5.556 F229.3
G0 Z-5.456
G1 Z-5.85 F229.3
G0 Z15
Y49.1
Z5
Z2
G1 Z-0.794 F229.3
G0 Z-0.694
G1 Z-1.587 F229.3
G0 Z-1.487
G1 Z-2.381 F229.3
G0 Z-2.281
G1 Z-3.175 F229.3
G0 Z-3.075
G1 Z-3.969 F229.3
G0 Z-3.869
G1 Z-4.762 F229.3
G0 Z-4.662
G1 Z-5.556 F229.3
G0 Z-5.456
G1 Z-5.85 F229.3
G0 Z15
X51.57 Y51.57
Z5
Z2
G1 Z-0.794 F229.3
G0 Z-0.694
G1 Z-1.587 F229.3
G0 Z-1.487
G1 Z-2.381 F229.3
G0 Z-2.281
G1 Z-3.175 F229.3
G0 Z-3.075
G1 Z-3.969 F229.3
G0 Z-3.869
G1 Z-4.762 F229.3
G0 Z-4.662
G1 Z-5.556 F229.3
G0 Z-5.456
G1 Z-5.85 F229.3
G0 Z15
X100.8 Y5
Z5
Z2
G1 Z-0.794 F229.3
G0 Z-0.694
G1 Z-1.587 F229.3
G0 Z-1.487
G1 Z-2.381 F229.3
G0 Z-2.281
G1 Z-3.175 F229.3
G0 Z-3.075
G1 Z-3.969 F229.3
G0 Z-3.869
G1 Z-4.762 F229.3
G0 Z-4.662
G1 Z-5.556 F229.3
G0 Z-5.456
G1 Z-5.85 F229.3
G0 Z15
Z25
M9
G28 G91 Z0
G90
G28 G91 X0 Y0
G90
M5
M30
